@extra/icons/0nyX/symbolic-22/solaar-attention.svg

<?xml version="1.0" encoding="UTF-8" standalone="no"?>
<svg xmlns="http://www.w3.org/2000/svg" version="1.1" viewBox="-3 -3 22 22">
 <path opacity=".5" stroke-width=".875" d="m2.334 1c-0.739 0-1.334 0.596-1.334 1.334v11.332c0 0.739 0.595 1.334 1.334 1.334h6.428a4.5 4.5 0 0 1 -0.762 -2.5 4.5 4.5 0 0 1 0.508 -2.068l-0.508-0.71-1.685 2.36a1.001 1.001 0 1 1 -1.63 -1.164l1.37-1.918h-2.055c-0.554 0-1-0.446-1-1s0.446-1 1-1h2.055l-1.37-1.918a1 1 0 0 1 0.772 -1.594 1 1 0 0 1 0.857 0.43l1.686 2.36 1.685-2.36a1 1 0 0 1 0.829 -0.43 1 1 0 0 1 0.8 1.594l-1.369 1.918h2.055c0.554 0 1 0.446 1 1 0 0.01-0.006 0.019-0.006 0.03a4.5 4.5 0 0 1 2.006 0.73v-6.426c0-0.738-0.595-1.334-1.334-1.334h-11.332zm5.666 6c-0.554 0-1 0.446-1 1s0.446 1 1 1 1-0.446 1-1-0.446-1-1-1z" fill="#f1f2f2"/>
 <circle cx="11.5" cy="11.5" r="4.5" fill="#333"/>
 <path style="color:#f1f2f2" d="m11.5 8a3.5 3.5 0 1 0 0 7 3.5 3.5 0 0 0 0 -7zm-2.5 2.969h5v1.031h-5z" class="error" overflow="visible" fill="#c00"/>
</svg>

<svg xmlns="http://www.w3.org/2000/svg" viewBox="-3 -3 22 22">
    <path opacity=".5" d="M2.334 1C1.595 1 1 1.596 1 2.334v11.332C1 14.405 1.595 15 2.334 15h6.428A4.5 4.5 0 0 1 8 12.5a4.5 4.5 0 0 1 .508-2.068L8 9.722l-1.685 2.36a1.001 1.001 0 1 1-1.63-1.164L6.055 9H4c-.554 0-1-.446-1-1s.446-1 1-1h2.055l-1.37-1.918a1 1 0 0 1 .772-1.594 1 1 0 0 1 .857.43L8 6.278l1.685-2.36a1 1 0 0 1 .829-.43 1 1 0 0 1 .8 1.594L9.945 7H12c.554 0 1 .446 1 1 0 .01-.006.019-.006.03A4.5 4.5 0 0 1 15 8.76V2.334C15 1.596 14.405 1 13.666 1H2.334zM8 7c-.554 0-1 .446-1 1s.446 1 1 1 1-.446 1-1-.446-1-1-1z" stroke-width=".875" fill="#f1f2f2"/>
    <path d="M12.5 9a3.5 3.5 0 1 0 0 7 3.5 3.5 0 0 0 0-7zM10 11.969h5V13h-5z" class="error" overflow="visible" fill="#c00" color="#f1f2f2"/>
</svg>
